16x16/panel/vorta-tray.svg

<svg xmlns="http://www.w3.org/2000/svg" width="16" height="16" version="1.1">
 <defs>
  <style id="current-color-scheme" type="text/css">
   .ColorScheme-Text { color:#323a41; } .ColorScheme-Highlight { color:#4285f4; } .ColorScheme-NeutralText { color:#ff9800; } .ColorScheme-PositiveText { color:#4caf50; } .ColorScheme-NegativeText { color:#f44336; }
  </style>
 </defs>
 <path style="fill:currentColor" class="ColorScheme-Text" d="M 5.6152344 2 C 4.7475164 2 4.3800613 2.0133915 4.0976562 2.5 L 0.01171875 7.7753906 C 0.54362265 7.2989106 1.237417 7 2 7 L 8 7 L 14 7 C 14.762583 7 15.456377 7.2989106 15.988281 7.7753906 L 11.902344 2.5 C 11.619939 2.0133915 11.252484 2 10.384766 2 L 8 2 L 5.6152344 2 z M 2 8 C 0.892 8 0 8.892 0 10 L 0 12 C 0 13.108 0.892 14 2 14 L 14 14 C 15.108 14 16 13.108 16 12 L 16 10 C 16 8.892 15.108 8 14 8 L 2 8 z M 10 9 C 10.574405 9.000649 11.120803 9.2482345 11.5 9.6796875 C 11.879197 9.2482345 12.425595 9.000649 13 9 C 14.104569 9 15 9.895431 15 11 C 15 12.104569 14.104569 13 13 13 C 12.425595 12.999351 11.879197 12.751765 11.5 12.320312 C 11.120803 12.751766 10.574405 12.999351 10 13 C 8.895431 13 8 12.104569 8 11 C 8 9.895431 8.895431 9 10 9 z M 10 10 A 1 1 0 0 0 9 11 A 1 1 0 0 0 10 12 A 1 1 0 0 0 11 11 A 1 1 0 0 0 10 10 z M 13 10 A 1 1 0 0 0 12 11 A 1 1 0 0 0 13 12 A 1 1 0 0 0 14 11 A 1 1 0 0 0 13 10 z"/>
</svg>

<svg xmlns="http://www.w3.org/2000/svg" width="16" height="16"><defs><style id="current-color-scheme" type="text/css"></style></defs><path style="fill:currentColor;color:#323a41" d="M5.615 2c-.867 0-1.235.013-1.517.5L.012 7.775A2.975 2.975 0 0 1 2 7h12c.763 0 1.456.299 1.988.775L11.902 2.5c-.282-.487-.65-.5-1.517-.5h-4.77zM2 8c-1.108 0-2 .892-2 2v2c0 1.108.892 2 2 2h12c1.108 0 2-.892 2-2v-2c0-1.108-.892-2-2-2H2zm8 1a2 2 0 0 1 1.5.68 2 2 0 1 1 0 2.64A2 2 0 1 1 10 9zm0 1a1 1 0 0 0-1 1 1 1 0 0 0 1 1 1 1 0 0 0 1-1 1 1 0 0 0-1-1zm3 0a1 1 0 0 0-1 1 1 1 0 0 0 1 1 1 1 0 0 0 1-1 1 1 0 0 0-1-1z"/></svg>
